src/lib/packages/icons/src/assets/filled/arrows-up-down.svg

<svg width="24" height="24" viewBox="0 0 24 24" fill="none" xmlns="http://www.w3.org/2000/svg">
<path d="M16.7071 16.293C17.0981 16.684 17.0981 17.3161 16.7071 17.7071L12.708 21.7061C12.615 21.7991 12.5051 21.8722 12.3821 21.9232C12.2601 21.9742 12.13 22.0001 12 22.0001C11.87 22.0001 11.74 21.9732 11.618 21.9232C11.495 21.8722 11.385 21.7991 11.292 21.7061L7.29301 17.7071C6.90201 17.3161 6.90201 16.684 7.29301 16.293C7.68401 15.902 8.31607 15.902 8.70707 16.293L11 18.586V5.41413L8.70707 7.7071C8.31607 8.0981 7.68401 8.0981 7.29301 7.7071C6.90201 7.3161 6.90201 6.68403 7.29301 6.29304L11.292 2.29401C11.385 2.20101 11.495 2.12797 11.618 2.07697C11.862 1.97597 12.1381 1.97597 12.3821 2.07697C12.5051 2.12797 12.615 2.20101 12.708 2.29401L16.7071 6.29304C17.0981 6.68403 17.0981 7.3161 16.7071 7.7071C16.5121 7.9021 16.256 8.00007 16 8.00007C15.744 8.00007 15.488 7.9021 15.293 7.7071L13 5.41413V18.586L15.293 16.293C15.684 15.902 16.3161 15.902 16.7071 16.293Z" fill="currentColor"/>
</svg>

<svg xmlns="http://www.w3.org/2000/svg" width="24" height="24" fill="none"><path fill="currentColor" d="M16.707 16.293a.999.999 0 0 1 0 1.414l-3.999 4a1 1 0 0 1-1.416 0l-3.999-4a.999.999 0 1 1 1.414-1.414L11 18.586V5.414L8.707 7.707a.999.999 0 1 1-1.414-1.414l3.999-3.999a1 1 0 0 1 1.416 0l4 3.999a.999.999 0 1 1-1.415 1.414L13 5.414v13.172l2.293-2.293a.999.999 0 0 1 1.414 0Z"/></svg>
